!!!OTL: SPRING SIE AUF DIE KETTE
!!!ARE: Europa, Mitteleuropa, Deutschland, Oberlausitz
!!!SCT: K2098
!!!YEM: Copyright 1995, estate of Helmut Schaffrath.
**kern
*ICvox
*Ivox
*M2/4
*k[b-]
*F:
=1
{8f
8g
8a
8b-
=2
4cc
4cc}
=3
{4dd
4ff
=4
4cc
4r}
=5
{4dd
4ff
=6
4cc
4r}
=7
{8b-
8b-
8b-
8b-
=8
4a
4a}
=9
{4g
4cc
=10
4f
4r}
=11
{8cc
8cc
4cc
=12
8a
8a
4a}
=13
{8g
8g
8cc
8cc
=14
8a
8a
4a}
=15
{8cc
8cc
4cc
=16
8a
8a
4a}
=17
{8g
8g
8cc
8cc
=18
8a
8g
4f}
==
!!!AGN: Kinder - Lied, Reigen, Tanz - Spiel
!!!ONB: ESAC (Essen Associative Code) Database: KINDER
!!!AMT: simple duple
!!!AIN: vox
!!!EED: Helmut Schaffrath
!!!EEV: 1.0
*-
